X:220
T:Grand March
O:No 220 Page 108 William Clarke of Feltwell
M:4/4
L:1/4
N:First 2 notes of B music and last 4 notes bar B3 changed from crotchets to quavers.
K:C
G/G/|c2BB|c2ge|ffd^f|ggg/f/e/d/|c2BB|c2ge|ffdB|cc/c/c::e/f/|ggg/e/f/g/|aaa/g/f/e/|fff/d/e/f/|ggg/f/e/d/|c2BB|c2ge|ffdB|cc/c/c:|

